X:1
T:[ID 1-117]
T:[ID 1-117]
T:Bezeichnung standardisiert: Menuett Men:
T:Urheber unbekannt Datum in der hier transkribierten schriftlichen Quelle: vermutlich vor 1767
C:Urheber unbekannt
C:Datum in der hier transkribierten schriftlichen Quelle: vermutlich vor 1767
L:1/8
M:none
K:A
V:1 treble 
V:1
 A2 E2 C2 | A,2 ABcA | B2 G2 E2 | G,2 BcdB | c2 ABcd | e2 fg a2 | affedc | B6 :: e2 c2 B2 | %9
 ^A2 F2 c2 | d2 b2 g2 | dc d4 | d2 B2 =A2 | G2 E2 d2 | c2 a2 f2 | dB c4 | A2 E2 C2 | %17
 (3cAc (3ece a2 | D2 B,2 A,2 | (3dBd (3geg b2 | E2 C2 A,2 | ABcABG | AD C2 B,2 |{B,} A,6 :| %24

